svg/ask-question.svg

<?xml version="1.0" encoding="UTF-8"?>
<svg xmlns="http://www.w3.org/2000/svg" xmlns:xlink="http://www.w3.org/1999/xlink" width="32" height="32" viewBox="0 0 32 32">
<path fill-rule="nonzero" fill="rgb(0%, 0%, 0%)" fill-opacity="1" d="M 16 2.558594 C 7.890625 2.558594 1.28125 8.242188 1.28125 15.355469 C 1.28125 19.484375 3.539062 23.078125 7.015625 25.425781 C 7.011719 25.566406 7.019531 25.789062 6.835938 26.460938 C 6.613281 27.292969 6.160156 28.460938 5.238281 29.78125 L 4.585938 30.71875 L 5.726562 30.71875 C 9.691406 30.71875 11.984375 28.136719 12.335938 27.722656 C 13.515625 28 14.734375 28.152344 16 28.152344 C 24.109375 28.152344 30.71875 22.46875 30.71875 15.355469 C 30.71875 8.242188 24.109375 2.558594 16 2.558594 M 16.640625 21.886719 L 14.914062 21.886719 L 14.914062 20.03125 L 16.640625 20.03125 Z M 19.519531 13.824219 C 19.265625 14.207031 18.753906 14.785156 17.921875 15.550781 C 17.34375 16.128906 16.960938 16.574219 16.765625 16.960938 C 16.574219 17.28125 16.511719 17.792969 16.511719 18.558594 L 14.914062 18.558594 C 14.914062 17.726562 15.039062 17.023438 15.234375 16.511719 C 15.425781 16 15.871094 15.425781 16.574219 14.71875 L 17.28125 14.015625 C 17.472656 13.824219 17.664062 13.632812 17.792969 13.375 C 18.046875 12.992188 18.175781 12.609375 18.175781 12.160156 C 18.183594 11.625 18 11.105469 17.664062 10.6875 C 17.34375 10.238281 16.703125 10.046875 15.933594 10.046875 C 14.914062 10.046875 14.207031 10.433594 13.824219 11.136719 C 13.632812 11.519531 13.503906 12.160156 13.441406 12.863281 L 11.839844 12.863281 C 11.90625 11.648438 12.226562 10.625 12.992188 9.855469 C 13.695312 9.085938 14.71875 8.703125 16 8.703125 C 17.152344 8.703125 18.113281 9.023438 18.816406 9.726562 C 19.519531 10.367188 19.90625 11.265625 19.90625 12.289062 C 19.90625 12.925781 19.773438 13.441406 19.519531 13.824219 M 19.519531 13.824219 "/>
</svg>

<svg role="img" viewBox="0 0 32 32" height="32" width="32" xmlns="http://www.w3.org/2000/svg"><path d="M16 2.559c-8.11 0-14.719 5.683-14.719 12.796 0 4.13 2.258 7.723 5.735 10.07-.004.141.004.364-.18 1.036-.223.832-.676 2-1.598 3.32l-.652.938h1.14c3.965 0 6.258-2.582 6.61-2.996 1.18.277 2.398.43 3.664.43 8.11 0 14.719-5.684 14.719-12.798C30.719 8.242 24.109 2.56 16 2.56m.64 19.328h-1.726V20.03h1.727Zm2.88-8.063c-.254.383-.766.961-1.598 1.727-.578.578-.961 1.023-1.156 1.41-.192.32-.254.832-.254 1.598h-1.598c0-.832.125-1.536.32-2.047.192-.512.637-1.086 1.34-1.793l.707-.703c.192-.192.383-.383.512-.641.254-.383.383-.766.383-1.215a2.299 2.299 0 0 0-.512-1.473c-.32-.449-.96-.64-1.73-.64-1.02 0-1.727.387-2.11 1.09-.191.383-.32 1.023-.383 1.726H11.84c.066-1.215.387-2.238 1.152-3.008.703-.77 1.727-1.152 3.008-1.152 1.152 0 2.113.32 2.816 1.024.704.64 1.09 1.539 1.09 2.562 0 .637-.133 1.152-.386 1.535m0 0"/></svg>
